svg/free/globe-alt.svg

<svg version="1.1" xmlns="http://www.w3.org/2000/svg" width="24" height="24" viewBox="0 0 24 24">
<title>globe-alt</title>
<path d="M12 0.75c-6.213 0-11.25 5.037-11.25 11.25s5.037 11.25 11.25 11.25 11.25-5.037 11.25-11.25-5.037-11.25-11.25-11.25zM20.984 8.205c0.484 1.12 0.766 2.425 0.766 3.795 0 1.261-0.239 2.467-0.673 3.574l0.023-0.066-2.35-3.133h-7.5v-1.875l0.932-0.699 3.815 0.763 1.759-1.759-0.774-1.935 1.603-2.061q0.158 0.145 0.31 0.296c0.868 0.866 1.573 1.895 2.066 3.037l0.024 0.063zM5.106 18.894c-1.764-1.766-2.856-4.205-2.856-6.899 0-1.368 0.282-2.671 0.79-3.853l-0.024 0.063c0.048-0.113 0.098-0.224 0.15-0.335l2.46 2.214v2.964l3.614 3.827h1.823v2.299l-2.206 2.059q-0.329-0.112-0.652-0.248c-1.205-0.517-2.234-1.222-3.099-2.090l-0-0zM18.894 18.894c-1.759 1.764-4.192 2.856-6.88 2.856-0.005 0-0.010 0-0.015-0h0.001c-0 0-0 0-0.001 0-0.491 0-0.974-0.036-1.446-0.105l0.054 0.006 1.956-1.825v-4.451h-2.677l-2.761-2.923v-3.036l-3.201-2.881c1.061-1.548 2.514-2.756 4.218-3.495l0.063-0.024c1.12-0.487 2.424-0.77 3.795-0.77 2.014 0 3.886 0.612 5.439 1.659l-0.035-0.022-2.136 2.746 0.726 1.815-0.491 0.491-3.685-0.737-2.068 1.551v4.125h8.25l2.36 3.147c-0.431 0.71-0.916 1.324-1.466 1.873l-0 0z"></path>
</svg>

<svg xmlns="http://www.w3.org/2000/svg" width="24" height="24" viewBox="0 0 24 24"><path d="M12 .75C5.787.75.75 5.787.75 12S5.787 23.25 12 23.25 23.25 18.213 23.25 12 18.213.75 12 .75zm8.984 7.455A9.627 9.627 0 0121.75 12a9.773 9.773 0 01-.673 3.574l.023-.066-2.35-3.133h-7.5V10.5l.932-.699 3.815.763 1.759-1.759-.774-1.935 1.603-2.061q.158.145.31.296a9.752 9.752 0 012.066 3.037l.024.063zM5.106 18.894a9.732 9.732 0 01-2.856-6.899c0-1.368.282-2.671.79-3.853l-.024.063c.048-.113.098-.224.15-.335l2.46 2.214v2.964l3.614 3.827h1.823v2.299l-2.206 2.059q-.329-.112-.652-.248a9.768 9.768 0 01-3.099-2.09zm13.788 0a9.686 9.686 0 01-6.88 2.856h-.015 0c-.491 0-.974-.036-1.446-.105l.054.006 1.956-1.825v-4.451H9.886l-2.761-2.923V9.416L3.924 6.535A9.874 9.874 0 018.142 3.04l.063-.024A9.572 9.572 0 0112 2.246c2.014 0 3.886.612 5.439 1.659l-.035-.022-2.136 2.746.726 1.815-.491.491-3.685-.737L9.75 9.749v4.125H18l2.36 3.147a9.807 9.807 0 01-1.466 1.873z"/></svg>
